svg/sport/skateboard_fill.svg

<?xml version="1.0" encoding="UTF-8"?>
<svg width="24px" height="24px" viewBox="0 0 24 24" version="1.1" xmlns="http://www.w3.org/2000/svg" xmlns:xlink="http://www.w3.org/1999/xlink">
    <title>skateboard_fill</title>
    <g id="Icon" stroke="none" stroke-width="1" fill="none" fill-rule="evenodd">
        <g id="Sport" transform="translate(-720.000000, -48.000000)">
            <g id="skateboard_fill" transform="translate(720.000000, 48.000000)">
                <path d="M24,0 L24,24 L0,24 L0,0 L24,0 Z M12.5935,23.2578 L12.5819,23.2595 L12.5109,23.295 L12.4919,23.2987 L12.4767,23.295 L12.4057,23.2595 C12.3958,23.2564 12.387,23.259 12.3821,23.2649 L12.378,23.2758 L12.3609,23.7031 L12.3659,23.7235 L12.3769,23.7357 L12.4805,23.8097 L12.4953,23.8136 L12.5071,23.8097 L12.6107,23.7357 L12.6233,23.7197 L12.6267,23.7031 L12.6096,23.2758 C12.6076,23.2657 12.601,23.2593 12.5935,23.2578 Z M12.8584,23.1453 L12.8445,23.1473 L12.6598,23.2397 L12.6499,23.2499 L12.6472,23.2611 L12.6651,23.6906 L12.6699,23.7034 L12.6784,23.7105 L12.8793,23.8032 C12.8914,23.8069 12.9022,23.803 12.9078,23.7952 L12.9118,23.7812 L12.8777,23.1665 C12.8753,23.1546 12.8674,23.147 12.8584,23.1453 Z M12.143,23.1473 C12.1332,23.1424 12.1222,23.1453 12.1156,23.1526 L12.1099,23.1665 L12.0758,23.7812 C12.0751,23.7927 12.0828,23.8019 12.0926,23.8046 L12.1083,23.8032 L12.3092,23.7105 L12.3186,23.7024 L12.3225,23.6906 L12.3404,23.2611 L12.3372,23.2485 L12.3278,23.2397 L12.143,23.1473 Z" id="MingCute" fill-rule="nonzero"></path>
                <path d="M13.4569,3.60407 C15.4008,2.2972 18.0595,2.5031 19.7781,4.22179 C21.4968,5.94046 21.7027,8.59903 20.3959,10.5429 C21.0612368,11.4683842 21.017274,12.7462296 20.2638413,13.625138 L20.1317,13.7678 L19.4246,14.4749 C18.6144105,15.2850895 17.3863418,15.4229565 16.4340439,14.8883311 L16.278,14.793 L14.793,16.278 C15.4023474,17.1976105 15.3391928,18.4313485 14.6037063,19.2858189 L14.4749,19.4246 L13.7678,20.1317 C12.8893,21.0102 11.5198,21.0982 10.5429,20.3959 C8.599,21.7027 5.94045,21.4968 4.22179,19.7781 C2.50313,18.0595 2.2972,15.4009 3.604,13.457 C2.93872947,12.5316105 2.98277662,11.2537701 3.73614144,10.374947 L3.86827,10.2323 L4.57537,9.52521 C5.38556895,8.71502053 6.61349454,8.57717144 7.56584536,9.11165424 L7.7219,9.20696 L9.20687,7.72199 C8.59768368,6.80239842 8.66082878,5.56870634 9.3963223,4.7142407 L9.52513,4.57546 L10.2322,3.86835 C11.1106,2.98996 12.4801,2.90186 13.4569,3.60407 Z M13.0606,17.3033 C12.8870889,17.1297889 12.6176568,17.1105099 12.4227597,17.245463 L12.3535,17.3033 L11.6464,18.0104 C11.4512,18.2057 11.4512,18.5223 11.6464,18.7175 C11.82,18.8911 12.089442,18.9103889 12.28427,18.7753667 L12.3535,18.7175 L13.0606,18.0104 C13.2559,17.8152 13.2559,17.4986 13.0606,17.3033 Z M18.0104,11.6465 L17.3033,12.3536 C17.108,12.5488 17.108,12.8654 17.3033,13.0607 C17.4986,13.2559 17.8151,13.2559 18.0104,13.0607 L18.7175,12.3536 C18.9128,12.1583 18.9128,11.8417 18.7175,11.6465 C18.5222,11.4512 18.2057,11.4512 18.0104,11.6465 Z M6.69669,10.9394 C6.52312556,10.7658889 6.25370333,10.7466099 6.05883716,10.881563 L5.98959,10.9394 L5.28248,11.6465 C5.08722,11.8418 5.08722,12.1584 5.28248,12.3536 C5.45604444,12.5272 5.72546667,12.5464889 5.92033986,12.4114667 L5.98959,12.3536 L6.69669,11.6465 C6.89195,11.4513 6.89196,11.1347 6.69669,10.9394 Z M11.6464,5.28257 L10.9393,5.98967 C10.7441,6.18494 10.7441,6.50152 10.9393,6.69678 C11.1346,6.89204 11.4512,6.89204 11.6464,6.69678 L12.3536,5.98967 C12.5488,5.79441 12.5488,5.47783 12.3536,5.28257 C12.1583,5.0873 11.8417,5.0873 11.6464,5.28257 Z" id="形状" fill="#09244B"></path>
            </g>
        </g>
    </g>
</svg>

<svg xmlns="http://www.w3.org/2000/svg" width="24" height="24"><g fill="none" fill-rule="evenodd"><path d="M24 0v24H0V0h24ZM12.594 23.258l-.012.002-.071.035-.02.004-.014-.004-.071-.036c-.01-.003-.019 0-.024.006l-.004.01-.017.428.005.02.01.013.104.074.015.004.012-.004.104-.074.012-.016.004-.017-.017-.427c-.002-.01-.009-.017-.016-.018Zm.264-.113-.014.002-.184.093-.01.01-.003.011.018.43.005.012.008.008.201.092c.012.004.023 0 .029-.008l.004-.014-.034-.614c-.003-.012-.01-.02-.02-.022Zm-.715.002a.023.023 0 0 0-.027.006l-.006.014-.034.614c0 .012.007.02.017.024l.015-.002.201-.093.01-.008.003-.011.018-.43-.003-.012-.01-.01-.184-.092Z"/><path fill="#09244B" d="M13.457 3.604a5.002 5.002 0 0 1 6.939 6.939 2.501 2.501 0 0 1-.132 3.082l-.132.143-.707.707c-.81.81-2.039.948-2.991.413l-.156-.095-1.485 1.485c.61.92.546 2.153-.19 3.008l-.128.139-.707.707a2.5 2.5 0 0 1-3.225.264 5.002 5.002 0 0 1-6.939-6.939 2.501 2.501 0 0 1 .132-3.082l.132-.143.707-.707a2.501 2.501 0 0 1 2.99-.413l.157.095 1.485-1.485a2.501 2.501 0 0 1 .19-3.008l.128-.139.707-.707a2.5 2.5 0 0 1 3.225-.264Zm-.396 13.7a.5.5 0 0 0-.638-.059l-.07.058-.707.707a.5.5 0 0 0 .638.765l.07-.057.707-.708a.5.5 0 0 0 0-.707Zm4.95-5.657-.708.707a.5.5 0 1 0 .707.707l.707-.707a.5.5 0 1 0-.707-.707Zm-11.314-.708a.5.5 0 0 0-.638-.057l-.07.057-.707.707a.5.5 0 0 0 .638.765l.07-.057.707-.707a.5.5 0 0 0 0-.708Zm4.95-5.656-.708.707a.5.5 0 0 0 .707.707l.708-.707a.5.5 0 0 0-.708-.707Z"/></g></svg>
